X: 145123
M: C
L: 1/8
K: G
[|\
ecAF cAFD | GFGB D2(dc) |\
fedc BAGF | G2B2 G2z2 |]
[K:D] |:\
gfed cABc | d2f2 d2z2 :|


